svgs/sharp-solid/card-spade.svg

<svg xmlns="http://www.w3.org/2000/svg" viewBox="0 0 384 512"><!--! Font Awesome Pro 6.6.0 by @fontawesome - https://fontawesome.com License - https://fontawesome.com/license (Commercial License) Copyright 2024 Fonticons, Inc. --><path d="M384 0L0 0 0 512l384 0L384 0zM192 120.8l39.6 39.6 64 64c21.9 21.9 21.9 57.3 0 79.2s-57.3 21.9-79.2 0l-8.4-8.4 0 40.8 16 0 16 0 0 32-16 0-16 0-32 0-16 0-16 0 0-32 16 0 16 0 0-40.8-8.4 8.4c-21.9 21.9-57.3 21.9-79.2 0s-21.9-57.3 0-79.2l64-64L192 120.8z"/></svg>

<svg xmlns="http://www.w3.org/2000/svg" viewBox="0 0 384 512"><!--! Font Awesome Pro 6.4.2 by @fontawesome - https://fontawesome.com License - https://fontawesome.com/license (Commercial License) Copyright 2023 Fonticons, Inc. --><path d="M384 0H0V512H384V0zM192 120.8l39.6 39.6 64 64c21.9 21.9 21.9 57.3 0 79.2s-57.3 21.9-79.2 0l-8.4-8.4V336h16 16v32H224 208 176 160 144V336h16 16V295.2l-8.4 8.4c-21.9 21.9-57.3 21.9-79.2 0s-21.9-57.3 0-79.2l64-64L192 120.8z"/></svg>
